X:1
T:Title
%%score [ 1 2 3 4 ]
L:1/8
Q:1/4=120
M:4/4
K:G
V:1 treble nm="MusicXML Part"
V:2 treble nm="MusicXML Part"
V:3 treble-8 nm="MusicXML Part"
V:4 bass nm="MusicXML Part"
V:1
"^Allala pia calia (1581)" G2 G2 c4 | B2 A4 A2 | ^G2 G2 z2"^Orlando di Lasso (1532-1594)" E2 | %3
w: A- lla- la|pi- a ca-|li- a, a-|
 E2 F4 B2 | A2 G2 F2 F2 :|[M:3/2] A4 A4 ^G4 | A4 B4 A4 | c4 B4 c4 |[M:4/4] A4 z2 G2 | c2 B2 A2 A2 | %10
w: lla- la pi-|a ca- li- a|Si- a- mo,|si- a- mo|ber- na- gua-|la, si-|a- mo, si- a-|
 B4 A4 | G4 E4 | F8- | F8 || z8 | D4 D2 E2 | F2 G2 A4 | E4 E2 F2 | G2 A2 B4 | z8 | B4 B2 ^c2 | %21
w: mo ber-|na- gua-|la|||Tan- bi- li-|li- li- li,|tan- bi- li-|li- li- li,||tan- bi- li-|
 ^d8- | d8 || B2 B2 B2 c2 | A2 B2 G2 F2 | E4 ^G2 A2 | B2 c2 d2 e2 | d2 d2 uG2 G2 | %28
w: li.||Schin- chi- na ba-|cu, san- ta gam-|ba, gli, gli|pam- pa- na ca-|li- a, ca- li-|
"^___________" G8- |"^___________________________________________" G8- | G8- | G8- | G8 || G4 G4 | %34
w: a|||||Cian, cian|
 F2 F4 B2 | B4 cc c2 | B2 A2"^Allala pia calia - Seite 2" A4 | z8 |"^p" F2 F2 F2 F2 | F2 F2 F2 F2 | %40
w: ni- ni gua,|gua, a- ni- a|ca- tu- ba.||He, he, he, he,|ha, ha, ha, ha,|
 G2 G2 G2 G2 | G6 G2 | G4 G4 | F4 F4 | G2 A2 G2 F2 | G2 A2 G2 F2 | G4 E4- | E2 E2 A4 | ^G4 A4 | %49
w: ho, ho, ho, ho!|Cu- ca-|na- ca-|li- a|ri- te a- pi-|ce scu- tu- tu-|ni, la|* pi- a|pi- ce|
 z4 F4- | F2 F2 A4 | ^G4 A4 | F2 G2 E4 | F2 G4 F2 | E4 E2 F2- |"^_____" F2 G2 E4 | F4 z4 | B6 B2 | %58
w: ber|* lin- gua-|mi- nu|cha- ra- chi-|re, cha- ra-|chi- re, cha-|* ra- chi-|re,|Et non|
 B4 A4 |"^gnam, 4x" GGGG F4 | z4 B4- | B2 B2 B4 | A4 G4 | G4 F4 | z4 G4- | G2 G2 G2 G2 | %66
w: gen- te|* * * * gnam|ch'a|* ma fi-|glia gen-|til- huom!|Non|* cu- ra- re|
 G2 F2 E2 E2 | ^D4 uE2 G2 | F2 G2 G2 E2 | G2 G2 G4 | B2 A2 G2 G2 | F4 B2 A2 | G2 G2 F4 | z4 G4 | %74
w: ber- lin- ga- mi-|num ch'a- mar|fos- se chis- sa|ho- mi- num|a- re bus- ca-|ni, a- re|bus- ca- ni!|A|
 A6 G2 | F6 G2 | E6 G2 | F6 A2 |"^Allala pia calia - Seite 3" A6 B2 | c6 B2 | d6 d2 | ^c8- | c8 | %83
w: la cu-|ra chi|de cu-|a, a|la cu-|ra chi|de cu-|a||
 ud2 dd dd B2- | B2 E2 E2 E2 | F8 |: G2 G2 c4 | B2 A4 A2 | ^G2 G2 z2 E2 | E2 F4 B2 | A2 G2 F2 F2 :| %91
w: A- re- pa- ti- cha- che|* sia- mo bes-|chin|A- lla- la|pi- a ca-|li- a, a-|lla- la pi-|a ca- li- a|
[M:3/2] A4 A4 ^G4 | A4 B4 A4 | c4 B4 c4 |[M:4/4] A4 z2 G2 | c2 B2 A2 A2 | B4 A4 | G4 E4 | F8- | %99
w: Si- a- mo,|si- a- mo,|ber- na- gua|la, si-|a- mo, si- a-|mo ber-|na- gua-|la|
 F8 || z8 | D4 D2 E2 | F2 G2 A4 | E4 E2 F2 | G2 A2 B4 | z8 | B4 B2 ^c2 | ^d8- | d8 |] %109
w: ||Tan- bi- li-|li- li- li,|tan- bi- li-|li- li- li,||tan- bi- li-|li.||
V:2
 E2 E2 E4 | G2 F4 E2 | E2 E2 z2 ^C2 | ^C2 D4 D2 | D2 B,2 D2 D2 :|[M:3/2] E4 E4 E4 | F4 G4 F4 | %7
w: |||||||
 E4 D4 E4 |[M:4/4] =F4 z2 E2 | E2 D2 ^C2 D2 | D6 D2 | D4 ^C4 | D8- | D8 || G,4 G,2 A,2 | %15
w: |||||||Tan- bi- li-|
 B,2 C2 D4 | A,4 A,2 B,2 | C2 D2 E4 | B,4 B,2 A,2 | G,2 A,2 B,2 C2 | D6 E2 | F8- | F8 || %23
w: li- li- li,|tan- bi- li-|li- li- li,|tan- bi- li-|li- li- li, li-|li- li-|li||
 E2 ^D2 E2 E2 | F2 G2 E2 D2 | B,4 E2 E2 | G2 G2 G2 G2 | F2 G2 uE2 E2 | E4 D2 D2 | E4 E2 E2 | %30
w: |||||||
 D4 E2 E2 | E8- | E8 || E4 E4 | D2 D4 D2 | D4 EE E2 | D2 ^C2 C4 | z8 | D2 D2 D2 D2 | D2 D2 D2 D2 | %40
w: ||||||||||
 D2 D2 D2 D2 | E6 E2 | E4 D4 | D4 D4 | D2 D2 D2 D2 | D2 D2 D2 D2 | D4 C4- | C2 C2 E4 | E4 ^C4 | %49
w: |||||||||
 z4 D4- | D2 D2 E4 | E4 ^C4 | D2 D2 ^C4 | D2 D4 D2 | B,4 ^C2 D2- | D2 D2 ^C4 | D4 z4 | D6 D2 | %58
w: |||||||||
 D4 D4 | DDDD D4 | z4 D4- | D2 D2 D4 | D4 D4 | D4 D4 | z4 D4- | D2 E2 D2 E2 | D2 D2 B,2 A,2 | %67
w: |||||||||
 B,4 u^C2 D2 | D2 E2 D2 C2 | D2 D2 E4 | G2 F2 E2 E2 | D4 G2 F2 | E2 E2 D4 | z4 D4 | =F6 E2 | %75
w: ||||||||
 D6 D2 | ^C6 E2 | ^D6 E2 | F6 G2 | E6 E2 | F6 G2 | E8- | E8 | uA,2 A,A, A,A, D2- | D2 C2 C2 B,2 | %85
w: ||||||||||
 F8 |: E2 E2 E4 | G2 F4 E2 | E2 E2 z2 ^C2 | ^C2 D4 D2 | D2 B,2 D2 D2 :|[M:3/2] E4 E4 E4 | %92
w: |||||||
 F4 G4 F4 | E4 D4 E4 |[M:4/4] =F4 z2 E2 | E2 D2 ^C2 D2 | D6 D2 | D4 ^C4 | D8- | D8 || G,4 G,2 A,2 | %101
w: ||||||||Tan- bi- li-|
 B,2 C2 D4 | A,4 A,2 B,2 | C2 D2 E4 | B,4 B,2 A,2 | G,2 A,2 B,2 C2 | D6 E2 | F8- | F8 |] %109
w: li- li- li,|tan- bi- li-|li- li- li,|tan- bi- li-|li- li- li, li-|li- li-|li||
V:3
 c2 c2 G4 | d2 d4 c2 | B2 B2 z2 A2 | A2 A4 G2 | F2 G2 A2 A2 :|[M:3/2] c4 c4 B4 | d4 d4 d4 | %7
w: A- lla- la|pi- a ca-|li- a, a-|lla- la pi-|a ca- li- a|Si- a- mo,|si- a- mo|
 G4 G4 G4 |[M:4/4] c4 z2 c2 | G2 G2 E2 F2 | G4 A4 | B4 A4 | A8- | A8 || z8 | z4 D4 | D2 E2 F2 G2 | %17
w: ber- na- gua-|la, si-|a- mo, si- a-|mo ber-|na- gua-|la|||Tan-|bi- li- li- li-|
 A4 E4 | E2 F2 G2 A2 | B4 G4 | F4 F4 | B8- | B8 || G2 F2 G2 G2 | d2 d2 c2 A2 | ^G4 B2 c2 | %26
w: li, tan-|bi- li- li- li-|li, tan-|bi- li-|li||Schin- chi- na ba-|cu, san- ta gam-|ba, gli, gli|
 d2 e2 B2 c2 | A2 B2 uc2 c2 | c4 B2 B2 | B4 c2 c2 | B4 c2 c2 | c8- | c8 || B4 c4 | A2 A4 G2 | %35
w: pam- pa- na ca-|li- a, ca- li-|a- ca- li-|a, ca- li-|a, ca- li-|a||Cian, cian|ni- ni gua,|
 G4 GG G2 | G2 E2 E4 | z8 | A2 A2 A2 A2 | B2 B2 B2 B2 | B2 B2 B2 B2 | c6 c2 | c4 B4 | A4 A4 | %44
w: gua, a- ni- a|ca- tu- ba.||He, he, he, he,|ha, ha, ha, ha,|ho, ho, ho, ho!|Cu- ca-|na- ca-|li- a|
 B2 A2 B2 A2 | B2 A2 B2 A2 | B4 G4- | G2 G2 c4 | B4 A4 | z4 A4- | A2 A2 c4 | B4 A4 | A2 B2 A4 | %53
w: ri- te a- pi-|ce scu- tu- tu-|ni, la|* pi- a|pi- ce|ber|* lin- gua-|mi- nu|cha- ra- chi-|
 A2 B4 A2 | ^G4 A2 A2- |"^_____" A2 B2 A4 | A4 z4 | G6 G2 | G4 F4 |"^gnam, 4x" BBBB A4 | z4 G4- | %61
w: re, cha- ra-|chi- re, cha-|* ra- chi-|re,|Et non|gen- te|* * * * gnam|ch'a|
 G2 G2 G4 | F4 B4 | B4 A4 | z4 B4- | B2 c2 B2 c2 | B2 A2 G2 E2 | F4 uA2 B2 | A2 c2 B2 A2 | %69
w: * ma fi-|glia gen-|til- huom!|Non|* cu- ra- re|ber- lin- ga- mi-|num ch'a- mar|fos- se chis- sa|
 B2 B2 c4 | d2 d2 B3 c | A4 d2 d2 | B3 c A4 | z4 B4 | c6 c2 | A6 B2 | A6 B2 | B6 ^c2 | d6 d2 | %79
w: ho- mi- num|a- re bus- ca-|ni, a- re|bus- ca- ni!|A|la cu-|ra chi|de cu-|a, a|la cu-|
 G6 G2 | A6 B2 | A8- | A8 | uF2 FF FF G2- | G2 G2 G2 G2 | A8 |: c2 c2 G4 | d2 d4 c2 | B2 B2 z2 A2 | %89
w: ra chi|de cu-|a||A- re- pa- ti- cha- che|* sia- mo bes-|chin|A- lla- la|pi- a ca-|li- a, a-|
 A2 A4 G2 | F2 G2 A2 A2 :|[M:3/2] c4 c4 B4 | d4 d4 d4 | G4 G4 G4 |[M:4/4] c4 z2 c2 | G2 G2 E2 F2 | %96
w: lla- la pi-|a ca- li- a|Si- a- mo,|si- a- mo,|ber- na- gua|la, si-|a- mo, si- a-|
 G4 A4 | B4 A4 | A8- | A8 || z8 | z4 D4 | D2 E2 F2 G2 | A4 E4 | E2 F2 G2 A2 | B4 G4 | F4 F4 | B8- | %108
w: mo ber-|na- gua-|la|||Tan-|bi- li- li- li-|li, tan-|bi- li- li- li-|li, tan-|bi- li-|li|
 B8 |] %109
w: |
V:4
 C,2 C,2 C,4 | G,,2 D,4 A,,2 | E,2 E,2 z2 A,,2 | A,,2 D,4 G,,2 | D,2 E,2 D,2 D,2 :| %5
w: |||||
[M:3/2] A,,4 A,,4 E,4 | D,4 G,,4 D,4 | C,4 G,,4 C,4 |[M:4/4] =F,,4 z2 C,2 | C,2 G,,2 A,,2 D,2 | %10
w: |||||
 G,,4 F,,4 | G,,4 A,,4 | D,8- | D,8 || z4 G,,4 | G,,2 A,,2 B,,2 C,2 | D,4 A,,4 | %17
w: ||||Tan-|bi- li- li- li-|li, tan-|
 A,,2 B,,2 C,2 D,2 | E,4 E,,4 | E,,2 F,,2 G,,2 A,,2 | B,,8- | B,,8- | B,,8 || E,2 B,,2 E,2 C,2 | %24
w: bi- li- li- li-|li, tan-|bi- li- li- li-|li||||
 D,2 G,2 C,2 D,2 | E,4 E,2 A,2 | G,2 C,2 G,2 C,2 | D,2 G,,2 uC,2 C,2 | C,4 G,2 G,2 | E,4 C,2 C,2 | %30
w: ||||||
 G,,4 C,2 C,2 | C,8- | C,8 || E,4 C,4 | D,2 D,4 G,,2 | G,,4 C,C, C,2 | G,,2 A,,2 A,,4 | z8 | %38
w: ||||||||
 D,2 D,2 D,2 D,2 | B,,2 B,,2 B,,2 B,,2 | G,,2 G,,2 G,,2 G,,2 | C,6 C,2 | C,4 G,,4 | D,4 D,4 | %44
w: ||||||
 G,2 F,2 G,2 D,2 | G,2 F,2 G,2 D,2 | G,4 C,4- | C,2 C,2 A,,4 | E,4 A,,4 | z4 D,4- | D,2 D,2 A,,4 | %51
w: |||||||
 E,4 A,,4 | D,2 G,,2 A,,4 | D,2 G,4 D,2 | E,4 A,,2 D,2- | D,2 G,,2 A,,4 | D,,4 z4 | G,,6 G,,2 | %58
w: |||||||
 G,,4 D,4 | G,,G,,G,,G,, D,4 | z4 G,,4- | G,,2 G,,2 G,,4 | D,4 G,,4 | G,,4 D,4 | z4 G,4- | %65
w: |||||||
 G,2 C,2 G,2 C,2 | G,2 D,2 E,2 C,2 | B,,4 uA,,2 G,,2 | D,2 C,2 G,2 A,2 | G,2 G,2 C,4 | %70
w: |||||
 G,,2 D,2 E,3 C, | D,4 G,,2 D,2 | E,3 C, D,4 | z4 G,4 | =F,6 C,2 | D,6 G,,2 | A,,6 E,,2 | %77
w: |||||||
 B,,6 A,,2 | D,6 G,,2 | C,6 E,2 | D,6 G,,2 | A,,8- | A,,8 | uD,2 D,D, D,D, G,,2- | %84
w: |||||||
 G,,2 C,2 C,2 E,2 | D,8 |: C,2 C,2 C,4 | G,,2 D,4 A,,2 | E,2 E,2 z2 A,,2 | A,,2 D,4 G,,2 | %90
w: ||||||
 D,2 E,2 D,2 D,2 :|[M:3/2] A,,4 A,,4 E,4 | D,4 G,,4 D,4 | C,4 G,,4 C,4 |[M:4/4] =F,,4 z2 C,2 | %95
w: |||||
 C,2 G,,2 A,,2 D,2 | G,,4 F,,4 | G,,4 A,,4 | D,8- | D,8 || z4 G,,4 | G,,2 A,,2 B,,2 C,2 | %102
w: |||||Tan-|bi- li- li- li-|
 D,4 A,,4 | A,,2 B,,2 C,2 D,2 | E,4 E,,4 | E,,2 F,,2 G,,2 A,,2 | B,,8- | B,,8- | B,,8 |] %109
w: li, tan-|bi- li- li- li-|li, tan-|bi- li- li- li-|li|||

